svgs/1F91D-1F3FC.svg

<svg xmlns="http://www.w3.org/2000/svg" version="1.1" xmlns:xlink="http://www.w3.org/1999/xlink" preserveAspectRatio="none" x="0px" y="0px" width="72px" height="72px" viewBox="0 0 72 72">
<defs>
<g id="Layer0_0_MEMBER_0_MEMBER_0_FILL">
<path fill="#E0BB95" stroke="none" d="
M 60.6 36.55
Q 58.1 33.95 54.75 31.1 51.35 28.1 48.5 26.15 43 22.3 41.05 21.05 36.35 18.15 33.05 17.1 29.4 16 26.65 16.05 24.2 16.15 20.45 17.35 19 17.8 15.1 16.25 11.15 14.7 8.8 15.45 5.95 16.5 3.3 21 1 24.85 0.8 27.4 0.4 31.4 7.95 36.95 11.3 39.4 19.95 44.35 21.65 45.35 28.45 49.8 34.15 53.5 37.1 54.95 39.65 56.15 41.2 56.4 43.5 56.8 44.7 55.65 45.85 54.5 45.9 53.65 45.9 53.45 46 53.4 46.15 53.3 46.3 53.35 47.8 53.9 48.8 53.85 49.8 53.85 50.75 53.15 51.65 52.5 52 51.45 52.35 50.45 52.05 49.35 52.05 49.2 52.15 49.1 52.25 49 52.35 49.05 55.05 50 57.05 48.25 57.85 47.55 58.1 46.45 58.4 45.25 57.95 43.9 57.9 43.75 58 43.6 58.1 43.5 58.2 43.5 59.7 43.55 60.8 43 61.9 42.45 62.25 41.35 63.1 39.1 60.6 36.55 Z"/>
</g>

<g id="Layer0_0_MEMBER_1_FILL">
<path fill="#C48E6A" stroke="none" d="
M 58.2 34.2
Q 58.75 35 58.85 36.1 58.95 37.55 58.2 38.65 57.55 39.6 56.35 40.05 55.05 40.6 55 40.6 54.9 40.7 54.65 42 54.4 43.25 53.45 44.1 52.4 45 50.85 45.15 49.3 45.25 49.2 45.35 49.2 45.4 48.8 46.7 48.4 47.95 47.15 48.85 45.8 49.75 44.2 49.9
L 42.65 50.05
Q 42.55 50.1 42.25 51.05 41.95 52 40.7 53.1 39.35 54.25 36.4 53.25 33.35 51.95 32.75 51.7 32.5 51.65 31.95 51.95
L 31.9 52
Q 35.1 53.95 37.1 54.9 39.6 56.15 41.2 56.4 43.45 56.8 44.7 55.6 45.85 54.5 45.9 53.65 45.9 53.45 46 53.35 46.15 53.3 46.3 53.35 47.8 53.9 48.8 53.85 49.8 53.8 50.75 53.15 51.65 52.45 52 51.45 52.35 50.45 52.05 49.35 52 49.2 52.15 49.05 52.2 49 52.35 49.05 55.05 49.95 57.05 48.25 57.8 47.55 58.1 46.45 58.4 45.2 57.95 43.9 57.9 43.75 58 43.6 58.05 43.5 58.2 43.5 59.65 43.55 60.75 43 61.85 42.45 62.25 41.35 63.1 39.1 60.6 36.55 59.5 35.4 58.2 34.2 Z"/>
</g>

<g id="Layer0_1_MEMBER_0_MEMBER_0_FILL">
<path fill="#C48E6A" stroke="none" d="
M 118.25 37.4
Q 115.4 34 111.1 32.1 106.55 30.1 102.75 31 98.7 32.2 96.05 32.9 91.2 34.15 88.5 34.1 81.45 33.9 77.05 33.2 72.75 32.55 65.45 34.85 58.05 37.2 51.4 41.5 47.6 44.05 45.75 47.1 44.2 49.6 45.9 52.6 47.6 55.65 51.2 56.1 54.95 56.55 60.95 53 70.1 47.6 71.3 47.1 74.05 45.95 74.6 45.75 76.65 45.05 78.5 45.2 80.8 45.4 89.3 52.15 97.65 58.65 106.05 66.75 114.85 60.95 115.9 60.15 122.6 54.95 124.4 50.1 125.6 46.85 123.1 43.1 119.65 39.1 118.25 37.4 Z"/>
</g>

<g id="Layer0_2_MEMBER_0_FILL">
<path fill="#C48E6A" stroke="none" d="
M 67.05 88.35
Q 66.9 91.1 66.5 92.1 66.2 92.9 65.6 94.65 65 96.1 64.35 96.85
L 66.05 97.7
Q 68.15 94.75 68.8 93.35 69.45 91.85 69.45 89.95 69.45 88.15 68.3 86.8
L 67.15 85.75 67.05 88.35 Z"/>
</g>

<g id="Layer0_2_MEMBER_1_FILL">
<path fill="#C48E6A" stroke="none" d="
M 33.75 70.4
Q 34.4 72.1 34 73.1 33.7 73.9 33.15 75.45 32.65 76.8 31.95 77.5
L 32.2 77.35
Q 32.55 77.2 32.85 77.4 33.35 77.7 33.05 78.25
L 34.6 76.5
Q 35.9 74.85 35.15 71.95 34.8 70.65 33.85 69.65
L 33 68.85 33.75 70.4 Z"/>
</g>

<g id="Layer0_2_MEMBER_2_FILL">
<path fill="#C48E6A" stroke="none" d="
M 45.9 74.2
L 44.8 73.1 44.9 75.75
Q 44.95 78.55 44.55 79.55 44.25 80.35 43.7 81.95 43.15 83.25 42.5 84
L 42.85 83.85
Q 43.3 83.75 43.6 83.95 44.1 84.2 43.85 85
L 46.05 82.4
Q 47.45 80.65 47.15 77.25 47 75.6 45.9 74.2 Z"/>
</g>

<g id="Layer0_2_MEMBER_3_FILL">
<path fill="#C48E6A" stroke="none" d="
M 58.3 77.9
L 57.15 81.75
Q 55.9 85.75 55.5 86.75 55.2 87.55 54.65 89.15 54.15 90.45 53.5 91.2
L 53.85 91.05
Q 54.3 90.95 54.6 91.1 55.1 91.4 54.8 92.2
L 57.5 89.05
Q 60.3 85.45 60.3 81.9 60.3 80.1 59.3 78.85
L 58.3 77.9 Z"/>
</g>

<g id="Layer0_3_MEMBER_0_MEMBER_0_MEMBER_0_FILL">
<path fill="#C48E6A" stroke="none" d="
M 56 93.5
Q 55.05 96.35 57.2 98.4 59.4 100.55 62.15 99.45 64.3 98.55 67.4 95.35 74.1 88.35 70.35 84.7 68.35 82.8 65.35 84 62.75 85 59.8 88.1 56.8 91.3 56 93.5 Z"/>
</g>

<g id="Layer0_3_MEMBER_1_MEMBER_0_MEMBER_0_FILL">
<path fill="#C48E6A" stroke="none" d="
M 50 94.85
Q 52.7 93.8 56.7 89.2 61.1 84.15 62.05 81.6 63.25 78.6 60.95 76.4 58.6 74.2 55.45 75.4 52.4 76.6 48.3 81.2 44.5 85.5 43.5 87.9 42.1 91.25 44.5 93.55 47.1 96 50 94.85 Z"/>
</g>

<g id="Layer0_3_MEMBER_2_MEMBER_0_MEMBER_0_FILL">
<path fill="#C48E6A" stroke="none" d="
M 33.2 86.8
Q 35.5 89.05 38.5 87.8 40.8 86.85 44.2 83.35 47.9 79.5 48.8 76.85 49.75 73.95 47.55 71.85 45.4 69.75 42.25 70.95 39.4 72.05 36.2 75.7 32.9 79.4 32.05 81.65 30.9 84.65 33.2 86.8 Z"/>
</g>

<g id="Layer0_3_MEMBER_3_MEMBER_0_MEMBER_0_FILL">
<path fill="#C48E6A" stroke="none" d="
M 30.4 66.15
Q 28.05 66.95 25.45 69.65 22.8 72.4 22.2 74.45 21.5 77.05 23.75 79.2 26 81.35 28.55 80.55 30.5 79.9 33.25 77.1 39.1 70.9 35.25 67.2 33.2 65.25 30.4 66.15 Z"/>
</g>

<g id="Layer0_4_MEMBER_0_MEMBER_0_FILL">
<path fill="#E0BB95" stroke="none" d="
M 67.6 19.7
Q 65.95 17.7 63.45 16.6 60.8 15.4 58.55 15.95 56.2 16.65 54.7 17.05 51.85 17.75 50.25 17.7 46.15 17.6 43.6 17.2 41.2 16.8 36.85 18.15 32.65 19.45 28.7 22 26.45 23.5 25.4 25.3 24.5 26.75 25.5 28.5 26.5 30.25 28.6 30.5 30.75 30.8 34.25 28.75 39.6 25.55 40.3 25.3 41.9 24.6 42.2 24.5 43.4 24.15 44.45 24.2 45.8 24.3 50.75 28.25 55.6 32.05 60.5 36.75 65.9 33.15 66.2 32.9 70.1 29.85 71.15 27.05 71.9 25.15 70.4 23 68.4 20.65 67.6 19.7 Z"/>
</g>

<g id="Layer0_5_MEMBER_0_MEMBER_0_MEMBER_0_FILL">
<path fill="#E0BB95" stroke="none" d="
M 57.2 89.4
Q 54.2 92.5 53.45 94.7 52.45 97.45 54.6 99.5 56.75 101.6 59.5 100.5 61.6 99.7 64.65 96.55 71.3 89.65 67.5 86.05 65.55 84.15 62.6 85.35 60.1 86.35 57.2 89.4 Z"/>
</g>

<g id="Layer0_5_MEMBER_1_MEMBER_0_MEMBER_0_FILL">
<path fill="#E0BB95" stroke="none" d="
M 47.55 96.05
Q 50.2 95 54.15 90.5 58.45 85.55 59.4 83.05 60.55 80.05 58.3 77.9 56 75.7 52.95 76.9 49.9 78.1 45.9 82.6 42.15 86.8 41.15 89.2 39.8 92.55 42.15 94.75 44.65 97.2 47.55 96.05 Z"/>
</g>

<g id="Layer0_5_MEMBER_2_MEMBER_0_MEMBER_0_FILL">
<path fill="#E0BB95" stroke="none" d="
M 31 88.1
Q 33.3 90.3 36.2 89.1 38.5 88.15 41.8 84.7 45.5 80.9 46.35 78.35 47.3 75.5 45.1 73.4 43 71.35 39.9 72.55 37.1 73.6 33.95 77.2 30.7 80.85 29.9 83.05 28.8 86 31 88.1 Z"/>
</g>

<g id="Layer0_5_MEMBER_3_MEMBER_0_MEMBER_0_FILL">
<path fill="#E0BB95" stroke="none" d="
M 28.3 67.8
Q 25.95 68.6 23.4 71.25 20.8 73.95 20.2 76 19.5 78.55 21.7 80.65 23.9 82.8 26.45 81.95 28.4 81.3 31.05 78.55 36.85 72.5 33 68.85 31 66.95 28.3 67.8 Z"/>
</g>

<path id="Layer0_1_MEMBER_1_MEMBER_0_1_STROKES" stroke="#C48E6A" stroke-width="2" stroke-linejoin="miter" stroke-linecap="butt" stroke-miterlimit="10" fill="none" d="
M 59.65 37.55
Q 64.6 34.3 65.2 33.85 68.95 30.9 70 28.2 70.65 26.35 69.25 24.25 67.3 22 66.5 21.05 64.9 19.15 62.5 18.05 59.95 16.95 57.8 17.45 55.5 18.1 54.05 18.5 51.3 19.2 49.8 19.2 45.8 19.05 43.35 18.7 40.9 18.3 36.8 19.6 32.65 20.95 28.9 23.35 26.8 24.8 25.75 26.5 24.85 27.9 25.8 29.6 26.8 31.3 28.8 31.55 30.9 31.8 34.3 29.8 39.45 26.8 40.1 26.5 41.65 25.85 41.95 25.75 43.1 25.35 44.15 25.45 45.45 25.55 50.25 29.35 54.95 33 59.65 37.55 Z"/>

<path id="Layer0_3_MEMBER_0_MEMBER_1_MEMBER_0_1_STROKES" stroke="#C48E6A" stroke-width="2" stroke-linejoin="miter" stroke-linecap="butt" stroke-miterlimit="10" fill="none" d="
M 37.9125 53.634375
Q 36.168749999999996 55.434374999999996 34.959375 55.940625000000004 33.4125 56.559374999999996 32.175000000000004 55.35 30.965625 54.196875 31.5 52.59375 31.95 51.356249999999996 33.637499999999996 49.55625 35.296875 47.8125 36.759375 47.25 38.446875 46.574999999999996 39.571875 47.643750000000004 41.68125 49.696875 37.9125 53.634375 Z"/>

<path id="Layer0_3_MEMBER_1_MEMBER_1_MEMBER_0_1_STROKES" stroke="#C48E6A" stroke-width="2" stroke-linejoin="miter" stroke-linecap="butt" stroke-miterlimit="10" fill="none" d="
M 31.89375 50.175000000000004
Q 29.64375 52.762499999999996 28.125 53.353125 26.493750000000002 54 25.03125 52.621874999999996 23.681250000000002 51.328125 24.46875 49.44375 25.03125 48.09375 27.16875 45.675000000000004 29.474999999999998 43.0875 31.190625 42.4125 32.9625 41.737500000000004 34.284375000000004 42.975 35.578125 44.2125 34.903124999999996 45.9 34.36875 47.334375 31.89375 50.175000000000004 Z"/>

<path id="Layer0_3_MEMBER_2_MEMBER_1_MEMBER_0_1_STROKES" stroke="#C48E6A" stroke-width="2" stroke-linejoin="miter" stroke-linecap="butt" stroke-miterlimit="10" fill="none" d="
M 24.8625 46.884375
Q 22.95 48.853125 21.65625 49.387499999999996 19.96875 50.090624999999996 18.675 48.824999999999996 17.381249999999998 47.615625 18.028125 45.928125 18.506249999999998 44.6625 20.3625 42.581250000000004 22.162499999999998 40.528124999999996 23.765625 39.909375000000004 25.537499999999998 39.234375 26.746875 40.415625 27.984375 41.596875000000004 27.45 43.228125 26.943749999999998 44.71875 24.8625 46.884375 Z"/>

<path id="Layer0_3_MEMBER_3_MEMBER_1_MEMBER_0_1_STROKES" stroke="#C48E6A" stroke-width="2" stroke-linejoin="miter" stroke-linecap="butt" stroke-miterlimit="10" fill="none" d="
M 18.703125 43.36875
Q 17.15625 44.94375 16.059375 45.309374999999996 14.625 45.759375 13.359375 44.550000000000004 12.09375 43.340624999999996 12.487499999999999 41.878125000000004 12.825000000000001 40.725 14.315624999999999 39.178125 15.778125000000001 37.659375000000004 17.099999999999998 37.209375 18.675 36.703125 19.828125 37.800000000000004 21.993750000000002 39.88125 18.703125 43.36875 Z"/>
</defs>

<g id="Layer_1">
<g transform="matrix( 1, 0, 0, 1, 0,0) ">
<use xlink:href="#Layer0_0_MEMBER_0_MEMBER_0_FILL"/>
</g>

<g transform="matrix( 1, 0, 0, 1, 0,0) ">
<use xlink:href="#Layer0_0_MEMBER_1_FILL"/>
</g>

<g transform="matrix( 0.5625, 0, 0, 0.5625, 0,0) ">
<use xlink:href="#Layer0_1_MEMBER_0_MEMBER_0_FILL"/>
</g>

<g transform="matrix( 1, 0, 0, 1, 0,0) ">
<use xlink:href="#Layer0_1_MEMBER_1_MEMBER_0_1_STROKES"/>
</g>

<g transform="matrix( 0.5625, 0, 0, 0.5625, 0,0) ">
<use xlink:href="#Layer0_2_MEMBER_0_FILL"/>
</g>

<g transform="matrix( 0.5625, 0, 0, 0.5625, 0,0) ">
<use xlink:href="#Layer0_2_MEMBER_1_FILL"/>
</g>

<g transform="matrix( 0.5625, 0, 0, 0.5625, 0,0) ">
<use xlink:href="#Layer0_2_MEMBER_2_FILL"/>
</g>

<g transform="matrix( 0.5625, 0, 0, 0.5625, 0,0) ">
<use xlink:href="#Layer0_2_MEMBER_3_FILL"/>
</g>

<g transform="matrix( 0.5625, 0, 0, 0.5625, 0,0) ">
<use xlink:href="#Layer0_3_MEMBER_0_MEMBER_0_MEMBER_0_FILL"/>
</g>

<g transform="matrix( 0.5625, 0, 0, 0.5625, 0,0) ">
<use xlink:href="#Layer0_3_MEMBER_0_MEMBER_1_MEMBER_0_1_STROKES" transform="matrix( 1.77777099609375, 0, 0, 1.77777099609375, 0,0) "/>
</g>

<g transform="matrix( 0.5625, 0, 0, 0.5625, 0,0) ">
<use xlink:href="#Layer0_3_MEMBER_1_MEMBER_0_MEMBER_0_FILL"/>
</g>

<g transform="matrix( 0.5625, 0, 0, 0.5625, 0,0) ">
<use xlink:href="#Layer0_3_MEMBER_1_MEMBER_1_MEMBER_0_1_STROKES" transform="matrix( 1.77777099609375, 0, 0, 1.77777099609375, 0,0) "/>
</g>

<g transform="matrix( 0.5625, 0, 0, 0.5625, 0,0) ">
<use xlink:href="#Layer0_3_MEMBER_2_MEMBER_0_MEMBER_0_FILL"/>
</g>

<g transform="matrix( 0.5625, 0, 0, 0.5625, 0,0) ">
<use xlink:href="#Layer0_3_MEMBER_2_MEMBER_1_MEMBER_0_1_STROKES" transform="matrix( 1.77777099609375, 0, 0, 1.77777099609375, 0,0) "/>
</g>

<g transform="matrix( 0.5625, 0, 0, 0.5625, 0,0) ">
<use xlink:href="#Layer0_3_MEMBER_3_MEMBER_0_MEMBER_0_FILL"/>
</g>

<g transform="matrix( 0.5625, 0, 0, 0.5625, 0,0) ">
<use xlink:href="#Layer0_3_MEMBER_3_MEMBER_1_MEMBER_0_1_STROKES" transform="matrix( 1.77777099609375, 0, 0, 1.77777099609375, 0,0) "/>
</g>

<g transform="matrix( 1, 0, 0, 1, 0,0) ">
<use xlink:href="#Layer0_4_MEMBER_0_MEMBER_0_FILL"/>
</g>

<g transform="matrix( 0.5625, 0, 0, 0.5625, 0,0) ">
<use xlink:href="#Layer0_5_MEMBER_0_MEMBER_0_MEMBER_0_FILL"/>
</g>

<g transform="matrix( 0.5625, 0, 0, 0.5625, 0,0) ">
<use xlink:href="#Layer0_5_MEMBER_1_MEMBER_0_MEMBER_0_FILL"/>
</g>

<g transform="matrix( 0.5625, 0, 0, 0.5625, 0,0) ">
<use xlink:href="#Layer0_5_MEMBER_2_MEMBER_0_MEMBER_0_FILL"/>
</g>

<g transform="matrix( 0.5625, 0, 0, 0.5625, 0,0) ">
<use xlink:href="#Layer0_5_MEMBER_3_MEMBER_0_MEMBER_0_FILL"/>
</g>
</g>
</svg>

<svg xmlns="http://www.w3.org/2000/svg" xmlns:xlink="http://www.w3.org/1999/xlink" preserveAspectRatio="none" viewBox="0 0 72 72"><defs><path id="a" fill="#E0BB95" d="M60.6 36.55q-2.5-2.6-5.85-5.45-3.4-3-6.25-4.95-5.5-3.85-7.45-5.1-4.7-2.9-8-3.95-3.65-1.1-6.4-1.05-2.45.1-6.2 1.3-1.45.45-5.35-1.1-3.95-1.55-6.3-.8Q5.95 16.5 3.3 21 1 24.85.8 27.4q-.4 4 7.15 9.55 3.35 2.45 12 7.4 1.7 1 8.5 5.45 5.7 3.7 8.65 5.15 2.55 1.2 4.1 1.45 2.3.4 3.5-.75 1.15-1.15 1.2-2 0-.2.1-.25.15-.1.3-.05 1.5.55 2.5.5 1 0 1.95-.7.9-.65 1.25-1.7.35-1 .05-2.1 0-.15.1-.25t.2-.05q2.7.95 4.7-.8.8-.7 1.05-1.8.3-1.2-.15-2.55-.05-.15.05-.3.1-.1.2-.1 1.5.05 2.6-.5t1.45-1.65q.85-2.25-1.65-4.8z"/><path id="b" fill="#C48E6A" d="M58.2 34.2q.55.8.65 1.9.1 1.45-.65 2.55-.65.95-1.85 1.4-1.3.55-1.35.55-.1.1-.35 1.4-.25 1.25-1.2 2.1-1.05.9-2.6 1.05-1.55.1-1.65.2 0 .05-.4 1.35-.4 1.25-1.65 2.15-1.35.9-2.95 1.05l-1.55.15q-.1.05-.4 1-.3.95-1.55 2.05-1.35 1.15-4.3.15-3.05-1.3-3.65-1.55-.25-.05-.8.25l-.05.05q3.2 1.95 5.2 2.9 2.5 1.25 4.1 1.5 2.25.4 3.5-.8 1.15-1.1 1.2-1.95 0-.2.1-.3.15-.05.3 0 1.5.55 2.5.5 1-.05 1.95-.7.9-.7 1.25-1.7t.05-2.1q-.05-.15.1-.3.05-.05.2 0 2.7.9 4.7-.8.75-.7 1.05-1.8.3-1.25-.15-2.55-.05-.15.05-.3.05-.1.2-.1 1.45.05 2.55-.5 1.1-.55 1.5-1.65.85-2.25-1.65-4.8-1.1-1.15-2.4-2.35z"/><path id="c" fill="#C48E6A" d="M118.25 37.4q-2.85-3.4-7.15-5.3-4.55-2-8.35-1.1-4.05 1.2-6.7 1.9-4.85 1.25-7.55 1.2-7.05-.2-11.45-.9-4.3-.65-11.6 1.65-7.4 2.35-14.05 6.65-3.8 2.55-5.65 5.6-1.55 2.5.15 5.5 1.7 3.05 5.3 3.5 3.75.45 9.75-3.1 9.15-5.4 10.35-5.9 2.75-1.15 3.3-1.35 2.05-.7 3.9-.55 2.3.2 10.8 6.95 8.35 6.5 16.75 14.6 8.8-5.8 9.85-6.6 6.7-5.2 8.5-10.05 1.2-3.25-1.3-7-3.45-4-4.85-5.7z"/><path id="e" fill="#C48E6A" d="M67.05 88.35q-.15 2.75-.55 3.75-.3.8-.9 2.55-.6 1.45-1.25 2.2l1.7.85q2.1-2.95 2.75-4.35.65-1.5.65-3.4 0-1.8-1.15-3.15l-1.15-1.05-.1 2.6z"/><path id="f" fill="#C48E6A" d="M33.75 70.4q.65 1.7.25 2.7-.3.8-.85 2.35-.5 1.35-1.2 2.05l.25-.15q.35-.15.65.05.5.3.2.85l1.55-1.75q1.3-1.65.55-4.55-.35-1.3-1.3-2.3l-.85-.8.75 1.55z"/><path id="g" fill="#C48E6A" d="M45.9 74.2l-1.1-1.1.1 2.65q.05 2.8-.35 3.8-.3.8-.85 2.4-.55 1.3-1.2 2.05l.35-.15q.45-.1.75.1.5.25.25 1.05l2.2-2.6q1.4-1.75 1.1-5.15Q47 75.6 45.9 74.2z"/><path id="h" fill="#C48E6A" d="M58.3 77.9l-1.15 3.85q-1.25 4-1.65 5-.3.8-.85 2.4-.5 1.3-1.15 2.05l.35-.15q.45-.1.75.05.5.3.2 1.1l2.7-3.15q2.8-3.6 2.8-7.15 0-1.8-1-3.05l-1-.95z"/><path id="i" fill="#C48E6A" d="M56 93.5q-.95 2.85 1.2 4.9 2.2 2.15 4.95 1.05 2.15-.9 5.25-4.1 6.7-7 2.95-10.65-2-1.9-5-.7-2.6 1-5.55 4.1-3 3.2-3.8 5.4z"/><path id="k" fill="#C48E6A" d="M50 94.85q2.7-1.05 6.7-5.65 4.4-5.05 5.35-7.6 1.2-3-1.1-5.2-2.35-2.2-5.5-1-3.05 1.2-7.15 5.8-3.8 4.3-4.8 6.7-1.4 3.35 1 5.65 2.6 2.45 5.5 1.3z"/><path id="m" fill="#C48E6A" d="M33.2 86.8q2.3 2.25 5.3 1 2.3-.95 5.7-4.45 3.7-3.85 4.6-6.5.95-2.9-1.25-5-2.15-2.1-5.3-.9-2.85 1.1-6.05 4.75-3.3 3.7-4.15 5.95-1.15 3 1.15 5.15z"/><path id="o" fill="#C48E6A" d="M30.4 66.15q-2.35.8-4.95 3.5-2.65 2.75-3.25 4.8-.7 2.6 1.55 4.75t4.8 1.35q1.95-.65 4.7-3.45 5.85-6.2 2-9.9-2.05-1.95-4.85-1.05z"/><path id="q" fill="#E0BB95" d="M67.6 19.7q-1.65-2-4.15-3.1-2.65-1.2-4.9-.65-2.35.7-3.85 1.1-2.85.7-4.45.65-4.1-.1-6.65-.5-2.4-.4-6.75.95-4.2 1.3-8.15 3.85-2.25 1.5-3.3 3.3-.9 1.45.1 3.2 1 1.75 3.1 2 2.15.3 5.65-1.75 5.35-3.2 6.05-3.45 1.6-.7 1.9-.8 1.2-.35 2.25-.3 1.35.1 6.3 4.05 4.85 3.8 9.75 8.5 5.4-3.6 5.7-3.85 3.9-3.05 4.95-5.85.75-1.9-.75-4.05-2-2.35-2.8-3.3z"/><path id="r" fill="#E0BB95" d="M57.2 89.4q-3 3.1-3.75 5.3-1 2.75 1.15 4.8 2.15 2.1 4.9 1 2.1-.8 5.15-3.95 6.65-6.9 2.85-10.5-1.95-1.9-4.9-.7-2.5 1-5.4 4.05z"/><path id="s" fill="#E0BB95" d="M47.55 96.05q2.65-1.05 6.6-5.55 4.3-4.95 5.25-7.45 1.15-3-1.1-5.15-2.3-2.2-5.35-1-3.05 1.2-7.05 5.7-3.75 4.2-4.75 6.6-1.35 3.35 1 5.55 2.5 2.45 5.4 1.3z"/><path id="t" fill="#E0BB95" d="M31 88.1q2.3 2.2 5.2 1 2.3-.95 5.6-4.4 3.7-3.8 4.55-6.35.95-2.85-1.25-4.95-2.1-2.05-5.2-.85-2.8 1.05-5.95 4.65-3.25 3.65-4.05 5.85Q28.8 86 31 88.1z"/><path id="u" fill="#E0BB95" d="M28.3 67.8q-2.35.8-4.9 3.45-2.6 2.7-3.2 4.75-.7 2.55 1.5 4.65 2.2 2.15 4.75 1.3 1.95-.65 4.6-3.4 5.8-6.05 1.95-9.7-2-1.9-4.7-1.05z"/><path id="d" fill="none" stroke="#C48E6A" stroke-linecap="butt" stroke-linejoin="miter" stroke-miterlimit="10" stroke-width="2" d="M59.65 37.55q4.95-3.25 5.55-3.7 3.75-2.95 4.8-5.65.65-1.85-.75-3.95-1.95-2.25-2.75-3.2-1.6-1.9-4-3-2.55-1.1-4.7-.6-2.3.65-3.75 1.05-2.75.7-4.25.7-4-.15-6.45-.5-2.45-.4-6.55.9-4.15 1.35-7.9 3.75-2.1 1.45-3.15 3.15-.9 1.4.05 3.1 1 1.7 3 1.95 2.1.25 5.5-1.75 5.15-3 5.8-3.3 1.55-.65 1.85-.75 1.15-.4 2.2-.3 1.3.1 6.1 3.9 4.7 3.65 9.4 8.2z"/><path id="j" fill="none" stroke="#C48E6A" stroke-linecap="butt" stroke-linejoin="miter" stroke-miterlimit="10" stroke-width="2" d="M37.913 53.634q-1.744 1.8-2.954 2.307-1.547.618-2.784-.591-1.21-1.153-.675-2.756.45-1.238 2.137-3.038 1.66-1.743 3.122-2.306 1.688-.675 2.813.394 2.11 2.053-1.66 5.99z"/><path id="l" fill="none" stroke="#C48E6A" stroke-linecap="butt" stroke-linejoin="miter" stroke-miterlimit="10" stroke-width="2" d="M31.894 50.175q-2.25 2.587-3.769 3.178-1.631.647-3.094-.731-1.35-1.294-.562-3.178.562-1.35 2.7-3.769 2.306-2.587 4.022-3.262 1.771-.675 3.093.562 1.294 1.237.62 2.925-.535 1.434-3.01 4.275z"/><path id="n" fill="none" stroke="#C48E6A" stroke-linecap="butt" stroke-linejoin="miter" stroke-miterlimit="10" stroke-width="2" d="M24.863 46.884q-1.913 1.97-3.207 2.503-1.687.704-2.981-.562-1.294-1.21-.647-2.897.478-1.265 2.335-3.347 1.8-2.053 3.403-2.672 1.771-.675 2.98.507 1.238 1.18.704 2.812-.506 1.49-2.587 3.656z"/><path id="p" fill="none" stroke="#C48E6A" stroke-linecap="butt" stroke-linejoin="miter" stroke-miterlimit="10" stroke-width="2" d="M18.703 43.369q-1.547 1.575-2.644 1.94-1.434.45-2.7-.759-1.265-1.21-.872-2.672.338-1.153 1.829-2.7 1.462-1.519 2.784-1.969 1.575-.506 2.728.591 2.166 2.081-1.125 5.569z"/></defs><use xlink:href="#a"/><use xlink:href="#b"/><use transform="scale(.5625)" xlink:href="#c"/><use xlink:href="#d"/><use transform="scale(.5625)" xlink:href="#e"/><use transform="scale(.5625)" xlink:href="#f"/><use transform="scale(.5625)" xlink:href="#g"/><use transform="scale(.5625)" xlink:href="#h"/><use transform="scale(.5625)" xlink:href="#i"/><use xlink:href="#j"/><use transform="scale(.5625)" xlink:href="#k"/><use xlink:href="#l"/><use transform="scale(.5625)" xlink:href="#m"/><use xlink:href="#n"/><use transform="scale(.5625)" xlink:href="#o"/><use xlink:href="#p"/><use xlink:href="#q"/><use transform="scale(.5625)" xlink:href="#r"/><use transform="scale(.5625)" xlink:href="#s"/><use transform="scale(.5625)" xlink:href="#t"/><use transform="scale(.5625)" xlink:href="#u"/></svg>
